app/front_assets/images/internship_offers_new/fast_time.svg

<svg height="87.411" viewBox="0 0 111.24 87.411" width="111.24" xmlns="http://www.w3.org/2000/svg"><path d="m71.539 89.459a35.756 35.756 0 1 0 -35.756-35.759 35.756 35.756 0 0 0 35.756 35.759zm0-67.539a31.783 31.783 0 1 1 -31.783 31.78 31.783 31.783 0 0 1 31.783-31.779zm0 37.742a5.928 5.928 0 0 0 1.049-.106l5.172 9.044a1.987 1.987 0 0 0 3.449-1.975l-5.177-9.047a5.9 5.9 0 0 0 -2.507-9.463v-12.289a1.986 1.986 0 1 0 -3.973 0v12.284a5.945 5.945 0 0 0 1.986 11.552zm0-7.946a1.986 1.986 0 1 1 -1.987 1.984 1.986 1.986 0 0 1 1.986-1.986zm-1.987-23.836v-1.986a1.986 1.986 0 1 1 3.973 0v1.986a1.986 1.986 0 1 1 -3.973 0zm-13.638 2.733a1.986 1.986 0 1 1 3.439-1.986l.993 1.719a1.986 1.986 0 1 1 -3.439 1.986zm-10.18 8.192a1.984 1.984 0 0 1 2.714-.727l1.721.993a1.987 1.987 0 1 1 -1.986 3.441l-1.721-.993a1.988 1.988 0 0 1 -.727-2.714zm-.019 16.885h-1.986a1.986 1.986 0 0 1 0-3.973h1.986a1.986 1.986 0 0 1 0 3.973zm4.453 12.646-1.721.993a1.987 1.987 0 0 1 -1.986-3.441l1.721-.993a1.987 1.987 0 1 1 1.986 3.441zm5.746 8.458.993-1.719a1.986 1.986 0 1 1 3.439 1.986l-.993 1.719a1.986 1.986 0 1 1 -3.439-1.986zm17.611 2.733v1.986a1.986 1.986 0 1 1 -3.973 0v-1.986a1.986 1.986 0 0 1 3.973 0zm9.206-2.466a1.986 1.986 0 1 1 3.439-1.986l.993 1.719a1.986 1.986 0 1 1 -3.439 1.986zm9.451-11.439a1.986 1.986 0 0 1 2.714-.727l1.721.993a1.987 1.987 0 0 1 -1.986 3.441l-1.721-.993a1.988 1.988 0 0 1 -.728-2.714zm5.18-13.905h1.986a1.986 1.986 0 1 1 0 3.973h-1.986a1.986 1.986 0 1 1 0-3.973zm-5.18-9.932a1.988 1.988 0 0 1 .727-2.714l1.721-.993a1.987 1.987 0 1 1 1.986 3.441l-1.721.993a1.988 1.988 0 0 1 -2.714-.727zm-9.451-11.439.993-1.719a1.986 1.986 0 1 1 3.439 1.986l-.993 1.719a1.986 1.986 0 1 1 -3.439-1.986zm-52.907 25.344h-15.892a1.986 1.986 0 1 1 0-3.973h15.892a1.986 1.986 0 1 1 0 3.973zm85.416-1.99a43.706 43.706 0 0 1 -83.586 17.881h-9.776a1.986 1.986 0 1 1 0-3.973h11.084a1.988 1.988 0 0 1 1.837 1.23 39.729 39.729 0 1 0 0-30.27 1.988 1.988 0 0 1 -1.837 1.23h-26.976a1.986 1.986 0 1 1 0-3.973h25.668a43.706 43.706 0 0 1 83.586 17.875z" fill="#0c0d91" transform="translate(-4 -9.998)"/></svg>

<svg xmlns="http://www.w3.org/2000/svg" width="111.24" height="87.411" viewBox="0 0 111.24 87.411"><defs><style>.a{fill:#0c0d91;}</style></defs><g transform="translate(0)"><path class="a" d="M71.539,89.459A35.756,35.756,0,1,0,35.783,53.7,35.756,35.756,0,0,0,71.539,89.459Zm0-67.539A31.783,31.783,0,1,1,39.756,53.7,31.783,31.783,0,0,1,71.539,21.921Zm0,37.742a5.928,5.928,0,0,0,1.049-.106L77.76,68.6a1.987,1.987,0,0,0,3.449-1.975l-5.177-9.047a5.9,5.9,0,0,0-2.507-9.463V35.826a1.986,1.986,0,1,0-3.973,0V48.11a5.945,5.945,0,0,0,1.986,11.552Zm0-7.946A1.986,1.986,0,1,1,69.552,53.7a1.986,1.986,0,0,1,1.986-1.986ZM69.552,27.88V25.894a1.986,1.986,0,1,1,3.973,0V27.88a1.986,1.986,0,1,1-3.973,0ZM55.914,30.613a1.986,1.986,0,1,1,3.439-1.986l.993,1.719a1.986,1.986,0,1,1-3.439,1.986Zm-10.18,8.192a1.984,1.984,0,0,1,2.714-.727l1.721.993a1.987,1.987,0,1,1-1.986,3.441l-1.721-.993a1.988,1.988,0,0,1-.727-2.714ZM45.715,55.69H43.729a1.986,1.986,0,0,1,0-3.973h1.986a1.986,1.986,0,0,1,0,3.973Zm4.453,12.646-1.721.993a1.987,1.987,0,0,1-1.986-3.441l1.721-.993a1.987,1.987,0,1,1,1.986,3.441Zm5.746,8.458.993-1.719a1.986,1.986,0,1,1,3.439,1.986l-.993,1.719a1.986,1.986,0,1,1-3.439-1.986Zm17.611,2.733v1.986a1.986,1.986,0,1,1-3.973,0V79.527a1.986,1.986,0,0,1,3.973,0Zm9.206-2.466a1.986,1.986,0,1,1,3.439-1.986l.993,1.719a1.986,1.986,0,1,1-3.439,1.986Zm9.451-11.439a1.986,1.986,0,0,1,2.714-.727l1.721.993a1.987,1.987,0,0,1-1.986,3.441l-1.721-.993A1.988,1.988,0,0,1,92.182,65.622Zm5.18-13.905h1.986a1.986,1.986,0,1,1,0,3.973H97.362a1.986,1.986,0,1,1,0-3.973Zm-5.18-9.932a1.988,1.988,0,0,1,.727-2.714l1.721-.993a1.987,1.987,0,1,1,1.986,3.441l-1.721.993a1.988,1.988,0,0,1-2.714-.727ZM82.731,30.346l.993-1.719a1.986,1.986,0,1,1,3.439,1.986l-.993,1.719a1.986,1.986,0,1,1-3.439-1.986ZM29.824,55.69H13.932a1.986,1.986,0,1,1,0-3.973H29.824a1.986,1.986,0,1,1,0,3.973ZM115.24,53.7A43.706,43.706,0,0,1,31.654,71.581H21.878a1.986,1.986,0,1,1,0-3.973H32.962a1.988,1.988,0,0,1,1.837,1.23,39.729,39.729,0,1,0,0-30.27,1.988,1.988,0,0,1-1.837,1.23H5.986a1.986,1.986,0,1,1,0-3.973H31.654A43.706,43.706,0,0,1,115.24,53.7Z" transform="translate(-4 -9.998)"/></g></svg>
